Newaita-dark/apps/16/preferences-plugin.svg

<svg height="16" viewBox="0 0 16 16" width="16" xmlns="http://www.w3.org/2000/svg" xmlns:xlink="http://www.w3.org/1999/xlink"><linearGradient id="a"><stop offset="0" stop-opacity=".27451"/><stop offset="1" stop-opacity="0"/></linearGradient><linearGradient id="b" gradientTransform="matrix(.00703193 0 0 .031253 1.93495 6.057871)" gradientUnits="userSpaceOnUse" x1="254" x2="254" xlink:href="#a" y1="233.5" y2="254.666672"/><linearGradient id="c"><stop offset="0" stop-opacity=".313726"/><stop offset=".222222" stop-opacity=".27451"/><stop offset="1" stop-opacity="0"/></linearGradient><radialGradient id="d" cx="450.908936" cy="189.579361" gradientTransform="matrix(.00000009 -.0390662 -.0703192 -.00000005 17.630927 31.136145)" gradientUnits="userSpaceOnUse" r="21.166656" xlink:href="#c"/><radialGradient id="e" cx="450.908936" cy="189.579361" gradientTransform="matrix(-.00000009 .0390662 .0703192 .00000005 -10.188809 -4.425261)" gradientUnits="userSpaceOnUse" r="21.166656" xlink:href="#c"/><radialGradient id="f" cx="450.908936" cy="189.579361" gradientTransform="matrix(-.00000009 -.0390662 .0703192 -.00000005 -10.188809 31.136145)" gradientUnits="userSpaceOnUse" r="21.166656" xlink:href="#c"/><radialGradient id="g" cx="450.908936" cy="189.579361" gradientTransform="matrix(.00000009 .0390662 -.0703192 .00000005 17.630925 -4.425261)" gradientUnits="userSpaceOnUse" r="21.166656" xlink:href="#c"/><linearGradient id="h" gradientTransform="matrix(.00703193 0 0 .031253 7.227123 6.057871)" gradientUnits="userSpaceOnUse" x1="254" x2="254" xlink:href="#a" y1="233.5" y2="254.666672"/><radialGradient id="i" cx="450.908936" cy="189.579361" gradientTransform="matrix(.00000009 -.0390662 -.0703192 -.00000005 22.923101 31.136145)" gradientUnits="userSpaceOnUse" r="21.166656" xlink:href="#c"/><radialGradient id="j" cx="450.908936" cy="189.579361" gradientTransform="matrix(-.00000009 .0390662 .0703192 .00000005 -4.896635 -4.425261)" gradientUnits="userSpaceOnUse" r="21.166656" xlink:href="#c"/><radialGradient id="k" cx="450.908936" cy="189.579361" gradientTransform="matrix(-.00000009 -.0390662 .0703192 -.00000005 -4.896635 31.136145)" gradientUnits="userSpaceOnUse" r="21.166656" xlink:href="#c"/><radialGradient id="l" cx="450.908936" cy="189.579361" gradientTransform="matrix(.00000009 .0390662 -.0703192 .00000005 22.923099 -4.425261)" gradientUnits="userSpaceOnUse" r="21.166656" xlink:href="#c"/><linearGradient id="m" gradientUnits="userSpaceOnUse" x1="6.2844552" x2="6.2844552" y1="13.35544440048" y2="1.44805535241"><stop offset="0" stop-color="#5c6bc0"/><stop offset="1" stop-color="#7986cb"/></linearGradient><path d="m2.976562 13.355469h1.488282v.660156h-1.488282zm0 0" fill="url(#b)"/><path d="m4.464844 13.355469h1.324218v-.660157h-1.324218zm0 0" fill="url(#d)"/><path d="m2.976562 13.355469h-1.324218v.660156h1.324218zm0 0" fill="url(#e)"/><path d="m2.976562 13.355469h-1.324218v-.660157h1.324218zm0 0" fill="url(#f)"/><path d="m4.464844 13.355469h1.324218v.660156h-1.324218zm0 0" fill="url(#g)"/><path d="m8.269531 13.355469h1.488281v.660156h-1.488281zm0 0" fill="url(#h)"/><path d="m9.757812 13.355469h1.324219v-.660157h-1.324219zm0 0" fill="url(#i)"/><path d="m8.269531 13.355469h-1.324219v.660156h1.324219zm0 0" fill="url(#j)"/><path d="m8.269531 13.355469h-1.324219v-.660157h1.324219zm0 0" fill="url(#k)"/><path d="m9.757812 13.355469h1.324219v.660156h-1.324219zm0 0" fill="url(#l)"/><path d="m6.285156 1.449219c-.917968 0-1.65625.738281-1.65625 1.652343 0 .542969.261719 1.023438.664063 1.324219v.328125h-2.976563c-.183594 0-.332031.148438-.332031.332032v2.976562h.328125c.300781-.402344.78125-.660156 1.324219-.660156.917969 0 1.65625.738281 1.65625 1.652344 0 .917968-.738281 1.65625-1.65625 1.65625-.542969 0-1.023438-.261719-1.324219-.664063h-.328125v2.976563c0 .183593.148437.332031.332031.332031h2.976563v-.328125c-.402344-.300782-.664063-.78125-.664063-1.324219 0-.917969.738282-1.65625 1.65625-1.65625.914063 0 1.652344.738281 1.652344 1.65625 0 .542969-.257812 1.023437-.660156 1.324219v.328125h2.976562c.183594 0 .332032-.148438.332032-.332031v-2.976563h.328124c.300782.402344.78125.664063 1.324219.664063.917969 0 1.652344-.738282 1.652344-1.65625 0-.914063-.734375-1.652344-1.652344-1.652344-.542969 0-1.023437.257812-1.324219.660156h-.328124v-2.976562c0-.183594-.148438-.332032-.332032-.332032h-2.976562v-.328125c.402344-.300781.660156-.78125.660156-1.324219 0-.914062-.738281-1.652343-1.652344-1.652343zm0 0" fill="url(#m)"/><path d="m6.285156 1.449219c-.917968 0-1.65625.738281-1.65625 1.652343 0 .042969.003906.082032.007813.125.0625-.859374.773437-1.53125 1.648437-1.53125s1.585938.671876 1.648438 1.53125c.003906-.042968.003906-.082031.003906-.125 0-.914062-.738281-1.652343-1.652344-1.652343zm-3.96875 3.304687c-.183594 0-.332031.148438-.332031.332032v.25c0-.183594.148437-.332032.332031-.332032h2.976563v-.25zm4.960938 0v.25h2.976562c.183594 0 .332032.148438.332032.332032v-.25c0-.183594-.148438-.332032-.332032-.332032zm4.960937 2.648438c-.542969 0-1.023437.257812-1.324219.660156h-.328124v.25h.328124c.300782-.402344.78125-.664062 1.324219-.664062.875 0 1.585938.671874 1.648438 1.53125.003906-.039063.003906-.082032.003906-.125 0-.914063-.734375-1.652344-1.652344-1.652344zm-6.949219 1.777344c-.066406.859374-.777343 1.53125-1.652343 1.53125-.542969 0-1.023438-.261719-1.324219-.664063h-.328125v.25h.328125c.300781.402344.78125.660156 1.324219.660156.917969 0 1.65625-.738281 1.65625-1.652343 0-.042969-.003907-.085938-.003907-.125zm-.652343 2.644531c-.003907.042969-.007813.082031-.007813.125 0 .542969.261719 1.023437.664063 1.324219v-.246094c-.371094-.277344-.621094-.710938-.65625-1.203125zm3.296875 0c-.035156.492187-.285156.925781-.65625 1.203125v.246094c.402344-.300782.660156-.78125.660156-1.324219 0-.042969 0-.082031-.003906-.125zm0 0" fill="#fff" fill-opacity=".392157"/><path d="m4.636719 2.976562c-.003907.042969-.007813.082032-.007813.125 0 .542969.261719 1.023438.664063 1.324219v-.246093c-.371094-.277344-.621094-.710938-.65625-1.203126zm3.296875 0c-.035156.492188-.285156.925782-.65625 1.203126v.246093c.402344-.300781.660156-.78125.660156-1.324219 0-.042968 0-.082031-.003906-.125zm-4.296875 4.175782c-.542969 0-1.023438.261718-1.324219.664062h-.328125v.246094h.328125c.300781-.402344.78125-.660156 1.324219-.660156.875 0 1.585937.671875 1.652343 1.527344 0-.039063.003907-.082032.003907-.121094 0-.917969-.738281-1.65625-1.65625-1.65625zm10.25 1.777344c-.0625.859374-.773438 1.53125-1.648438 1.53125-.542969 0-1.023437-.257813-1.324219-.660157h-.328124v.246094h.328124c.300782.402344.78125.664063 1.324219.664063.917969 0 1.652344-.738282 1.652344-1.65625 0-.039063 0-.082032-.003906-.125zm-7.601563.871093c-.917968 0-1.65625.738281-1.65625 1.652344 0 .042969.003906.082031.007813.125.0625-.859375.773437-1.53125 1.648437-1.53125s1.585938.671875 1.648438 1.53125c.003906-.042969.003906-.082031.003906-.125 0-.914063-.738281-1.652344-1.652344-1.652344zm-4.300781 2.976563v.246094c0 .183593.148437.332031.332031.332031h2.976563v-.25h-2.976563c-.183594 0-.332031-.144531-.332031-.328125zm8.601563 0c0 .183594-.148438.328125-.332032.328125h-2.976562v.25h2.976562c.183594 0 .332032-.148438.332032-.332031zm0 0" fill-opacity=".235294"/><path d="m760.084936 175.258863c-111.013027 0-200.295844 89.282818-200.295844 199.823448 0 65.663025 31.650522 123.767715 80.307296 160.142196v39.681252h-359.965644c-22.202605 0-40.153648 17.951043-40.153648 40.153648v359.965644h39.681252c36.374481-48.656773 94.479172-79.8349 160.142196-79.8349 111.013027 0 200.295844 89.282817 200.295844 199.823448 0 111.013027-89.282817 200.295844-200.295844 200.295844-65.663024 0-123.767715-31.650522-160.142196-80.307296h-39.681252v359.965644c0 22.202605 17.951043 40.153648 40.153648 40.153648h359.965644v-39.681252c-48.656774-36.374481-80.307296-94.479172-80.307296-160.142196 0-111.013027 89.282817-200.295844 200.295844-200.295844 110.540631 0 199.823448 89.282817 199.823448 200.295844 0 65.663024-31.178127 123.767715-79.8349 160.142196v39.681252h359.965644c22.202605 0 40.153648-17.951043 40.153648-40.153648v-359.965644h39.681252c36.374481 48.656774 94.479171 80.307296 160.142196 80.307296 111.013026 0 199.823448-89.282817 199.823448-200.295844 0-110.540631-88.810422-199.823448-199.823448-199.823448-65.663025 0-123.767715 31.178127-160.142196 79.8349h-39.681252v-359.965644c0-22.202605-17.951043-40.153648-40.153648-40.153648h-359.965644v-39.681252c48.656773-36.374481 79.8349-94.479171 79.8349-160.142196 0-110.54063-89.282817-199.823448-199.823448-199.823448zm0 0" fill="none" stroke="#212121" stroke-linecap="round" stroke-linejoin="round" stroke-width="11.338583" transform="scale(.00826902)"/></svg>

<?xml version="1.0" encoding="UTF-8"?>
<svg xmlns="http://www.w3.org/2000/svg" xmlns:xlink="http://www.w3.org/1999/xlink" width="16px" height="16px" viewBox="0 0 16 16" version="1.1">
<defs>
<linearGradient id="linear0" gradientUnits="userSpaceOnUse" x1="254" y1="233.5" x2="254" y2="254.666672" gradientTransform="matrix(0.00703193,0,0,0.031253,1.93495,6.057871)">
<stop offset="0" style="stop-color:rgb(0%,0%,0%);stop-opacity:0.27451;"/>
<stop offset="1" style="stop-color:rgb(0%,0%,0%);stop-opacity:0;"/>
</linearGradient>
<radialGradient id="radial0" gradientUnits="userSpaceOnUse" cx="450.908936" cy="189.579361" fx="450.908936" fy="189.579361" r="21.166656" gradientTransform="matrix(0.0000000870852,-0.0390662,-0.0703192,-0.0000000507693,17.630927,31.136145)">
<stop offset="0" style="stop-color:rgb(0%,0%,0%);stop-opacity:0.313726;"/>
<stop offset="0.222222" style="stop-color:rgb(0%,0%,0%);stop-opacity:0.27451;"/>
<stop offset="1" style="stop-color:rgb(0%,0%,0%);stop-opacity:0;"/>
</radialGradient>
<radialGradient id="radial1" gradientUnits="userSpaceOnUse" cx="450.908936" cy="189.579361" fx="450.908936" fy="189.579361" r="21.166656" gradientTransform="matrix(-0.0000000870852,0.0390662,0.0703192,0.0000000507693,-10.188809,-4.425261)">
<stop offset="0" style="stop-color:rgb(0%,0%,0%);stop-opacity:0.313726;"/>
<stop offset="0.222222" style="stop-color:rgb(0%,0%,0%);stop-opacity:0.27451;"/>
<stop offset="1" style="stop-color:rgb(0%,0%,0%);stop-opacity:0;"/>
</radialGradient>
<radialGradient id="radial2" gradientUnits="userSpaceOnUse" cx="450.908936" cy="189.579361" fx="450.908936" fy="189.579361" r="21.166656" gradientTransform="matrix(-0.0000000870852,-0.0390662,0.0703192,-0.0000000507693,-10.188809,31.136145)">
<stop offset="0" style="stop-color:rgb(0%,0%,0%);stop-opacity:0.313726;"/>
<stop offset="0.222222" style="stop-color:rgb(0%,0%,0%);stop-opacity:0.27451;"/>
<stop offset="1" style="stop-color:rgb(0%,0%,0%);stop-opacity:0;"/>
</radialGradient>
<radialGradient id="radial3" gradientUnits="userSpaceOnUse" cx="450.908936" cy="189.579361" fx="450.908936" fy="189.579361" r="21.166656" gradientTransform="matrix(0.0000000870852,0.0390662,-0.0703192,0.0000000507693,17.630925,-4.425261)">
<stop offset="0" style="stop-color:rgb(0%,0%,0%);stop-opacity:0.313726;"/>
<stop offset="0.222222" style="stop-color:rgb(0%,0%,0%);stop-opacity:0.27451;"/>
<stop offset="1" style="stop-color:rgb(0%,0%,0%);stop-opacity:0;"/>
</radialGradient>
<linearGradient id="linear1" gradientUnits="userSpaceOnUse" x1="254" y1="233.5" x2="254" y2="254.666672" gradientTransform="matrix(0.00703193,0,0,0.031253,7.227123,6.057871)">
<stop offset="0" style="stop-color:rgb(0%,0%,0%);stop-opacity:0.27451;"/>
<stop offset="1" style="stop-color:rgb(0%,0%,0%);stop-opacity:0;"/>
</linearGradient>
<radialGradient id="radial4" gradientUnits="userSpaceOnUse" cx="450.908936" cy="189.579361" fx="450.908936" fy="189.579361" r="21.166656" gradientTransform="matrix(0.0000000870852,-0.0390662,-0.0703192,-0.0000000507693,22.923101,31.136145)">
<stop offset="0" style="stop-color:rgb(0%,0%,0%);stop-opacity:0.313726;"/>
<stop offset="0.222222" style="stop-color:rgb(0%,0%,0%);stop-opacity:0.27451;"/>
<stop offset="1" style="stop-color:rgb(0%,0%,0%);stop-opacity:0;"/>
</radialGradient>
<radialGradient id="radial5" gradientUnits="userSpaceOnUse" cx="450.908936" cy="189.579361" fx="450.908936" fy="189.579361" r="21.166656" gradientTransform="matrix(-0.0000000870852,0.0390662,0.0703192,0.0000000507693,-4.896635,-4.425261)">
<stop offset="0" style="stop-color:rgb(0%,0%,0%);stop-opacity:0.313726;"/>
<stop offset="0.222222" style="stop-color:rgb(0%,0%,0%);stop-opacity:0.27451;"/>
<stop offset="1" style="stop-color:rgb(0%,0%,0%);stop-opacity:0;"/>
</radialGradient>
<radialGradient id="radial6" gradientUnits="userSpaceOnUse" cx="450.908936" cy="189.579361" fx="450.908936" fy="189.579361" r="21.166656" gradientTransform="matrix(-0.0000000870852,-0.0390662,0.0703192,-0.0000000507693,-4.896635,31.136145)">
<stop offset="0" style="stop-color:rgb(0%,0%,0%);stop-opacity:0.313726;"/>
<stop offset="0.222222" style="stop-color:rgb(0%,0%,0%);stop-opacity:0.27451;"/>
<stop offset="1" style="stop-color:rgb(0%,0%,0%);stop-opacity:0;"/>
</radialGradient>
<radialGradient id="radial7" gradientUnits="userSpaceOnUse" cx="450.908936" cy="189.579361" fx="450.908936" fy="189.579361" r="21.166656" gradientTransform="matrix(0.0000000870852,0.0390662,-0.0703192,0.0000000507693,22.923099,-4.425261)">
<stop offset="0" style="stop-color:rgb(0%,0%,0%);stop-opacity:0.313726;"/>
<stop offset="0.222222" style="stop-color:rgb(0%,0%,0%);stop-opacity:0.27451;"/>
<stop offset="1" style="stop-color:rgb(0%,0%,0%);stop-opacity:0;"/>
</radialGradient>
<linearGradient id="linear2" gradientUnits="userSpaceOnUse" x1="760" y1="1615.118164" x2="760" y2="175.118134" gradientTransform="matrix(0.00826902,0,0,0.00826902,0,0)">
<stop offset="0" style="stop-color:rgb(36.078432%,41.960785%,75.294119%);stop-opacity:1;"/>
<stop offset="1" style="stop-color:rgb(47.450981%,52.549022%,79.607844%);stop-opacity:1;"/>
</linearGradient>
</defs>
<g id="surface1">
<path style=" stroke:none;fill-rule:nonzero;fill:url(#linear0);" d="M 2.976562 13.355469 L 4.464844 13.355469 L 4.464844 14.015625 L 2.976562 14.015625 Z M 2.976562 13.355469 "/>
<path style=" stroke:none;fill-rule:nonzero;fill:url(#radial0);" d="M 4.464844 13.355469 L 5.789062 13.355469 L 5.789062 12.695312 L 4.464844 12.695312 Z M 4.464844 13.355469 "/>
<path style=" stroke:none;fill-rule:nonzero;fill:url(#radial1);" d="M 2.976562 13.355469 L 1.652344 13.355469 L 1.652344 14.015625 L 2.976562 14.015625 Z M 2.976562 13.355469 "/>
<path style=" stroke:none;fill-rule:nonzero;fill:url(#radial2);" d="M 2.976562 13.355469 L 1.652344 13.355469 L 1.652344 12.695312 L 2.976562 12.695312 Z M 2.976562 13.355469 "/>
<path style=" stroke:none;fill-rule:nonzero;fill:url(#radial3);" d="M 4.464844 13.355469 L 5.789062 13.355469 L 5.789062 14.015625 L 4.464844 14.015625 Z M 4.464844 13.355469 "/>
<path style=" stroke:none;fill-rule:nonzero;fill:url(#linear1);" d="M 8.269531 13.355469 L 9.757812 13.355469 L 9.757812 14.015625 L 8.269531 14.015625 Z M 8.269531 13.355469 "/>
<path style=" stroke:none;fill-rule:nonzero;fill:url(#radial4);" d="M 9.757812 13.355469 L 11.082031 13.355469 L 11.082031 12.695312 L 9.757812 12.695312 Z M 9.757812 13.355469 "/>
<path style=" stroke:none;fill-rule:nonzero;fill:url(#radial5);" d="M 8.269531 13.355469 L 6.945312 13.355469 L 6.945312 14.015625 L 8.269531 14.015625 Z M 8.269531 13.355469 "/>
<path style=" stroke:none;fill-rule:nonzero;fill:url(#radial6);" d="M 8.269531 13.355469 L 6.945312 13.355469 L 6.945312 12.695312 L 8.269531 12.695312 Z M 8.269531 13.355469 "/>
<path style=" stroke:none;fill-rule:nonzero;fill:url(#radial7);" d="M 9.757812 13.355469 L 11.082031 13.355469 L 11.082031 14.015625 L 9.757812 14.015625 Z M 9.757812 13.355469 "/>
<path style=" stroke:none;fill-rule:nonzero;fill:url(#linear2);" d="M 6.285156 1.449219 C 5.367188 1.449219 4.628906 2.1875 4.628906 3.101562 C 4.628906 3.644531 4.890625 4.125 5.292969 4.425781 L 5.292969 4.753906 L 2.316406 4.753906 C 2.132812 4.753906 1.984375 4.902344 1.984375 5.085938 L 1.984375 8.0625 L 2.3125 8.0625 C 2.613281 7.660156 3.09375 7.402344 3.636719 7.402344 C 4.554688 7.402344 5.292969 8.140625 5.292969 9.054688 C 5.292969 9.972656 4.554688 10.710938 3.636719 10.710938 C 3.09375 10.710938 2.613281 10.449219 2.3125 10.046875 L 1.984375 10.046875 L 1.984375 13.023438 C 1.984375 13.207031 2.132812 13.355469 2.316406 13.355469 L 5.292969 13.355469 L 5.292969 13.027344 C 4.890625 12.726562 4.628906 12.246094 4.628906 11.703125 C 4.628906 10.785156 5.367188 10.046875 6.285156 10.046875 C 7.199219 10.046875 7.9375 10.785156 7.9375 11.703125 C 7.9375 12.246094 7.679688 12.726562 7.277344 13.027344 L 7.277344 13.355469 L 10.253906 13.355469 C 10.4375 13.355469 10.585938 13.207031 10.585938 13.023438 L 10.585938 10.046875 L 10.914062 10.046875 C 11.214844 10.449219 11.695312 10.710938 12.238281 10.710938 C 13.15625 10.710938 13.890625 9.972656 13.890625 9.054688 C 13.890625 8.140625 13.15625 7.402344 12.238281 7.402344 C 11.695312 7.402344 11.214844 7.660156 10.914062 8.0625 L 10.585938 8.0625 L 10.585938 5.085938 C 10.585938 4.902344 10.4375 4.753906 10.253906 4.753906 L 7.277344 4.753906 L 7.277344 4.425781 C 7.679688 4.125 7.9375 3.644531 7.9375 3.101562 C 7.9375 2.1875 7.199219 1.449219 6.285156 1.449219 Z M 6.285156 1.449219 "/>
<path style=" stroke:none;fill-rule:nonzero;fill:rgb(100%,100%,100%);fill-opacity:0.392157;" d="M 6.285156 1.449219 C 5.367188 1.449219 4.628906 2.1875 4.628906 3.101562 C 4.628906 3.144531 4.632812 3.183594 4.636719 3.226562 C 4.699219 2.367188 5.410156 1.695312 6.285156 1.695312 C 7.160156 1.695312 7.871094 2.367188 7.933594 3.226562 C 7.9375 3.183594 7.9375 3.144531 7.9375 3.101562 C 7.9375 2.1875 7.199219 1.449219 6.285156 1.449219 Z M 2.316406 4.753906 C 2.132812 4.753906 1.984375 4.902344 1.984375 5.085938 L 1.984375 5.335938 C 1.984375 5.152344 2.132812 5.003906 2.316406 5.003906 L 5.292969 5.003906 L 5.292969 4.753906 Z M 7.277344 4.753906 L 7.277344 5.003906 L 10.253906 5.003906 C 10.4375 5.003906 10.585938 5.152344 10.585938 5.335938 L 10.585938 5.085938 C 10.585938 4.902344 10.4375 4.753906 10.253906 4.753906 Z M 12.238281 7.402344 C 11.695312 7.402344 11.214844 7.660156 10.914062 8.0625 L 10.585938 8.0625 L 10.585938 8.3125 L 10.914062 8.3125 C 11.214844 7.910156 11.695312 7.648438 12.238281 7.648438 C 13.113281 7.648438 13.824219 8.320312 13.886719 9.179688 C 13.890625 9.140625 13.890625 9.097656 13.890625 9.054688 C 13.890625 8.140625 13.15625 7.402344 12.238281 7.402344 Z M 5.289062 9.179688 C 5.222656 10.039062 4.511719 10.710938 3.636719 10.710938 C 3.09375 10.710938 2.613281 10.449219 2.3125 10.046875 L 1.984375 10.046875 L 1.984375 10.296875 L 2.3125 10.296875 C 2.613281 10.699219 3.09375 10.957031 3.636719 10.957031 C 4.554688 10.957031 5.292969 10.21875 5.292969 9.304688 C 5.292969 9.261719 5.289062 9.21875 5.289062 9.179688 Z M 4.636719 11.824219 C 4.632812 11.867188 4.628906 11.90625 4.628906 11.949219 C 4.628906 12.492188 4.890625 12.972656 5.292969 13.273438 L 5.292969 13.027344 C 4.921875 12.75 4.671875 12.316406 4.636719 11.824219 Z M 7.933594 11.824219 C 7.898438 12.316406 7.648438 12.75 7.277344 13.027344 L 7.277344 13.273438 C 7.679688 12.972656 7.9375 12.492188 7.9375 11.949219 C 7.9375 11.90625 7.9375 11.867188 7.933594 11.824219 Z M 7.933594 11.824219 "/>
<path style=" stroke:none;fill-rule:nonzero;fill:rgb(0%,0%,0%);fill-opacity:0.235294;" d="M 4.636719 2.976562 C 4.632812 3.019531 4.628906 3.058594 4.628906 3.101562 C 4.628906 3.644531 4.890625 4.125 5.292969 4.425781 L 5.292969 4.179688 C 4.921875 3.902344 4.671875 3.46875 4.636719 2.976562 Z M 7.933594 2.976562 C 7.898438 3.46875 7.648438 3.902344 7.277344 4.179688 L 7.277344 4.425781 C 7.679688 4.125 7.9375 3.644531 7.9375 3.101562 C 7.9375 3.058594 7.9375 3.019531 7.933594 2.976562 Z M 3.636719 7.152344 C 3.09375 7.152344 2.613281 7.414062 2.3125 7.816406 L 1.984375 7.816406 L 1.984375 8.0625 L 2.3125 8.0625 C 2.613281 7.660156 3.09375 7.402344 3.636719 7.402344 C 4.511719 7.402344 5.222656 8.074219 5.289062 8.929688 C 5.289062 8.890625 5.292969 8.847656 5.292969 8.808594 C 5.292969 7.890625 4.554688 7.152344 3.636719 7.152344 Z M 13.886719 8.929688 C 13.824219 9.789062 13.113281 10.460938 12.238281 10.460938 C 11.695312 10.460938 11.214844 10.203125 10.914062 9.800781 L 10.585938 9.800781 L 10.585938 10.046875 L 10.914062 10.046875 C 11.214844 10.449219 11.695312 10.710938 12.238281 10.710938 C 13.15625 10.710938 13.890625 9.972656 13.890625 9.054688 C 13.890625 9.015625 13.890625 8.972656 13.886719 8.929688 Z M 6.285156 9.800781 C 5.367188 9.800781 4.628906 10.539062 4.628906 11.453125 C 4.628906 11.496094 4.632812 11.535156 4.636719 11.578125 C 4.699219 10.71875 5.410156 10.046875 6.285156 10.046875 C 7.160156 10.046875 7.871094 10.71875 7.933594 11.578125 C 7.9375 11.535156 7.9375 11.496094 7.9375 11.453125 C 7.9375 10.539062 7.199219 9.800781 6.285156 9.800781 Z M 1.984375 12.777344 L 1.984375 13.023438 C 1.984375 13.207031 2.132812 13.355469 2.316406 13.355469 L 5.292969 13.355469 L 5.292969 13.105469 L 2.316406 13.105469 C 2.132812 13.105469 1.984375 12.960938 1.984375 12.777344 Z M 10.585938 12.777344 C 10.585938 12.960938 10.4375 13.105469 10.253906 13.105469 L 7.277344 13.105469 L 7.277344 13.355469 L 10.253906 13.355469 C 10.4375 13.355469 10.585938 13.207031 10.585938 13.023438 Z M 10.585938 12.777344 "/>
<path style="fill:none;stroke-width:11.338583;stroke-linecap:round;stroke-linejoin:round;stroke:rgb(12.941177%,12.941177%,12.941177%);stroke-opacity:1;stroke-miterlimit:4;" d="M 760.084936 175.258863 C 649.071909 175.258863 559.789092 264.541681 559.789092 375.082311 C 559.789092 440.745336 591.439614 498.850026 640.096388 535.224507 L 640.096388 574.905759 L 280.130744 574.905759 C 257.928139 574.905759 239.977096 592.856802 239.977096 615.059407 L 239.977096 975.025051 L 279.658348 975.025051 C 316.032829 926.368278 374.13752 895.190151 439.800544 895.190151 C 550.813571 895.190151 640.096388 984.472968 640.096388 1095.013599 C 640.096388 1206.026626 550.813571 1295.309443 439.800544 1295.309443 C 374.13752 1295.309443 316.032829 1263.658921 279.658348 1215.002147 L 239.977096 1215.002147 L 239.977096 1574.967791 C 239.977096 1597.170396 257.928139 1615.121439 280.130744 1615.121439 L 640.096388 1615.121439 L 640.096388 1575.440187 C 591.439614 1539.065706 559.789092 1480.961015 559.789092 1415.297991 C 559.789092 1304.284964 649.071909 1215.002147 760.084936 1215.002147 C 870.625567 1215.002147 959.908384 1304.284964 959.908384 1415.297991 C 959.908384 1480.961015 928.730257 1539.065706 880.073484 1575.440187 L 880.073484 1615.121439 L 1240.039128 1615.121439 C 1262.241733 1615.121439 1280.192776 1597.170396 1280.192776 1574.967791 L 1280.192776 1215.002147 L 1319.874028 1215.002147 C 1356.248509 1263.658921 1414.353199 1295.309443 1480.016224 1295.309443 C 1591.02925 1295.309443 1679.839672 1206.026626 1679.839672 1095.013599 C 1679.839672 984.472968 1591.02925 895.190151 1480.016224 895.190151 C 1414.353199 895.190151 1356.248509 926.368278 1319.874028 975.025051 L 1280.192776 975.025051 L 1280.192776 615.059407 C 1280.192776 592.856802 1262.241733 574.905759 1240.039128 574.905759 L 880.073484 574.905759 L 880.073484 535.224507 C 928.730257 498.850026 959.908384 440.745336 959.908384 375.082311 C 959.908384 264.541681 870.625567 175.258863 760.084936 175.258863 Z M 760.084936 175.258863 " transform="matrix(0.00826902,0,0,0.00826902,0,0)"/>
</g>
</svg>
